X: 2079
T: Bungay Jar, The
R: jig
C: Rick Gagne
N: 1999 on tenor banjo
M: 6/8
Q: 1/4=175
K: Am
e | "Dm"fed "Am"cBA | "Em"GEG "Am"AcE | "Dm"FAD "Am"EAc | "Em"BeB "Am"cde | 
"Dm"~fed "Am"cBA | "Em"GEG "Am"AcE | "Dm"FAD "Am"EAc | "Em"BeG "Am"A2 :|
e | "Am"age A2a | "C"gea gfe | "Dm"def "Am"ece | "G"dBd "Em"eBe |
[1 "Am"age A2a | "C"gea gfe | "Dm"def "Am"ece | "Em"dBe "Am"A2 :|
[2 "F"f2e "Am"cBA | "Em"GEG "Am"AcE | "Dm"FAD "Am"EAc | "Em"BeG "Am"A2 ||
